assets/svg/icon_article_h3_on.svg

<svg width="24" height="24" viewBox="0 0 24 24" fill="none" xmlns="http://www.w3.org/2000/svg">
<path fill-rule="evenodd" clip-rule="evenodd" d="M4.31802 4.31802C3 5.63604 3 7.75736 3 12C3 16.2426 3 18.364 4.31802 19.682C5.63604 21 7.75736 21 12 21C16.2426 21 18.364 21 19.682 19.682C21 18.364 21 16.2426 21 12C21 7.75736 21 5.63604 19.682 4.31802C18.364 3 16.2426 3 12 3C7.75736 3 5.63604 3 4.31802 4.31802ZM7.40078 9C7.40078 8.66863 7.13215 8.4 6.80078 8.4C6.46941 8.4 6.20078 8.66863 6.20078 9V15C6.20078 15.3314 6.46941 15.6 6.80078 15.6C7.13215 15.6 7.40078 15.3314 7.40078 15V12.6H10.2008V15C10.2008 15.3314 10.4694 15.6 10.8008 15.6C11.1322 15.6 11.4008 15.3314 11.4008 15V9C11.4008 8.66863 11.1322 8.4 10.8008 8.4C10.4694 8.4 10.2008 8.66863 10.2008 9V11.4H7.40078V9ZM13.1016 8.4C12.7702 8.4 12.5016 8.66863 12.5016 9C12.5016 9.33137 12.7702 9.6 13.1016 9.6H16.5016V11.4H14.6016C14.2702 11.4 14.0016 11.6686 14.0016 12C14.0016 12.3314 14.2702 12.6 14.6016 12.6H16.5016V14.4H13.1016C12.7702 14.4 12.5016 14.6686 12.5016 15C12.5016 15.3314 12.7702 15.6 13.1016 15.6H16.6016C17.2091 15.6 17.7016 15.1075 17.7016 14.5V9.5C17.7016 8.89249 17.2091 8.4 16.6016 8.4H13.1016Z" fill="#0166FF"/>
</svg>

<svg xmlns="http://www.w3.org/2000/svg" width="24" height="24" fill="none"><path fill="#0166FF" fill-rule="evenodd" d="M4.318 4.318C3 5.636 3 7.758 3 12s0 6.364 1.318 7.682S7.758 21 12 21s6.364 0 7.682-1.318S21 16.242 21 12s0-6.364-1.318-7.682S16.242 3 12 3 5.636 3 4.318 4.318M7.401 9a.6.6 0 0 0-1.2 0v6a.6.6 0 1 0 1.2 0v-2.4h2.8V15a.6.6 0 1 0 1.2 0V9a.6.6 0 1 0-1.2 0v2.4H7.4zm5.7-.6a.6.6 0 1 0 0 1.2h3.4v1.8h-1.9a.6.6 0 1 0 0 1.2h1.9v1.8h-3.4a.6.6 0 1 0 0 1.2h3.5a1.1 1.1 0 0 0 1.1-1.1v-5a1.1 1.1 0 0 0-1.1-1.1z" clip-rule="evenodd"/></svg>
